X:1
T:Sir Charles Forbes of New & Edinglassie
T:Sir Charles Forbes of New & Edinglassie
T:William Marshall
C:William Marshall
%%score ( 1 2 ) ( 3 4 )
L:1/8
M:4/4
K:Ab
V:1 treble 
V:2 treble 
V:3 bass 
V:4 bass 
V:1
 C |"^tr" (F>G) (A>B) (A/G/)(F/E/) (c/B/)(A/G/) |"^tr" (F>G) A>B{CE} cA, c(B/A/) | %3
 Ge{d} e(^d/c/) (B/A/)G/F/ (E>G) | (B/A/)G/F/ [CA]/[B,G]/[A,F]/[G,=E]/{E} [A,F]2 [A,F]C | %5
"^tr" (F>G) (A>B) (A/G/)(F/E/) ([Ec]/B/)(A/G/) |"^tr" (F>G) A>B{CE} cA, c(B/A/) | %7
 Ge{=d} e(d/c/) (B/A/)G/F/ (E>G) | B/A/G/F/ [CA]/[B,G]/[A,F]/[G,=E]/{E} [A,F]2 F || c | %10
 (f>g) (a>f) geeg | (f>g) (a>f) (a/g/)f/=e/ (fg) | (f>g) (ab) geeg | (f>e) c[B=e] [Af]2 [Af]c | %14
 (f>g) (a>f) geeg | ([Af]a)([cg]b) ([Aa]f)g[B=d] |{EB} (e/d/)c/B/ [Be][FB] GEEG | %17
 F/G/A/B/ [=Ec]C{E} [A,F]2 [A,F] |] %18
V:2
 x | C2 B,2 B,2 x2 | (C>=E)F_E/D/ (CE) x2 | x8 | C2 x6 | C2 B,2 B,2 x2 | (C>=E) F_E/D/ (CE) x2 | %7
 x8 | C2 x4 x || x | x8 | x8 | x8 | x8 | x8 | x8 | x8 | C2 x4 x |] %18
V:3
 z | [F,,F,]2 [=D,,=D,]2 [E,,E,]2 [G,,G,]2 | [A,,A,][G,,G,][F,,F,][E,,E,] [A,,E,]2 A,G,/F,/ | %3
 E,2 G,A, [G,,G,]2 [E,,E,]2 | F,,G,,/A,,/ C,C,, F,,/A,,/C,/F,/ F,, z | %5
 [F,,F,]2 [=D,,=D,]2 [E,,E,]2 [G,,G,]2 | [A,,A,][G,,G,][F,,F,][E,,E,] [A,,E,]2 A,G,/F,/ | %7
 E,2 [E,G,]A, [G,,G,]2 [E,,E,]2 | G,,,A,,,/B,,,/ C,C,, z/ F,,/A,,/C,/ [F,,F,] || z | %10
 F,/[A,C]/[A,C]/[A,C]/ =D,/[F,B,]/[F,B,]/[F,B,]/ E,/[G,B,]/[G,B,]/[G,B,]/ E,/[G,B,]/[G,B,]/[G,B,]/ | %11
 A,G,F, z z [B,C][A,C] z | %12
 F,/[A,C]/[A,C]/[A,C]/ =D,/[F,B,]/[F,B,]/[F,B,]/ E,/[G,B,]/[G,B,]/[G,B,]/ E,/[G,B,]/[G,B,]/[G,B,]/ | %13
 [A,,A,]2 [C,C]2 F,/F,,/A,,/C,/ F,2 | %14
 F,/[A,C]/[A,C]/[A,C]/ =D,/[F,B,]/[F,B,]/[F,B,]/ E,/[G,B,]/[G,B,]/[G,B,]/ E,/[G,B,]/[G,B,]/[G,B,]/ | %15
 A,F, =E,C, F,A, G,B,/A,/ | [G,B,]A, [F,G,]=D, [E,,E,]2 [G,,G,]2 | %17
 A,/G,/F,/_D,/ [C,,C,]2 z/ F,,/A,,/C,/ [F,,F,] |] %18
V:4
 x | x8 | x8 | x8 | x8 | x8 | x8 | x8 | x7 || x | F,2 =D,2 E,2 E,2 | x4 C,2 x2 | F,2 =D,2 E,2 E,2 | %13
 x8 | F,2 =D,2 E,2 E,2 | C,2 C,2 x4 | x8 | x7 |] %18

